packages/vue-material-icons/lib/social/recycling/materialicons/20px.svg

<svg xmlns="http://www.w3.org/2000/svg" enable-background="new 0 0 20 20" height="20" viewBox="0 0 20 20" width="20"><rect fill="none" height="20" width="20"/><path d="M13 14h3.83l-1.09 2.17c-.25.51-.77.83-1.34.83H13M7.62 7.72l1.8-3-.9-1.49c-.39-.65-1.33-.65-1.72 0L5.05 6.17l2.57 1.55zm8.72.77L13.72 10l1.83 3h.85c.57 0 1.09-.32 1.34-.83.23-.46.21-1-.06-1.44l-1.34-2.24zM4.37 15.08c-.22.37-.24.83-.05 1.22.22.43.66.7 1.14.7H8.5v-3H5.02l-.65 1.08zM13 14v-1.54l-3 3 3 3V17m1.01-12.4-1.13-1.88c-.26-.44-.75-.72-1.28-.72H8.95l2.49 4.15-1.29.77 4.12 1.03 1.03-4.12-1.29.77zM5.3 11.58l1.28.77-1.02-4.12-4.12 1.03 1.29.77-.42.69c-.26.44-.28.98-.06 1.44l1.22 2.44 1.83-3.02z"/></svg>

<svg xmlns="http://www.w3.org/2000/svg" enable-background="new 0 0 20 20" height="20" viewBox="0 0 20 20" width="20"><rect fill="none" height="20" width="20"/><path d="M13,14h3.83l-1.09,2.17C15.49,16.68,14.97,17,14.4,17H13 M7.62,7.72l1.8-3L8.52,3.23c-0.39-0.65-1.33-0.65-1.72,0L5.05,6.17 L7.62,7.72z M16.34,8.49L13.72,10l1.83,3h0.85c0.57,0,1.09-0.32,1.34-0.83c0.23-0.46,0.21-1-0.06-1.44L16.34,8.49z M4.37,15.08 c-0.22,0.37-0.24,0.83-0.05,1.22C4.54,16.73,4.98,17,5.46,17H8.5v-3H5.02L4.37,15.08z M13,14v-1.54l-3,3l3,3V17 M14.01,4.6 l-1.13-1.88C12.62,2.28,12.13,2,11.6,2H8.95l2.49,4.15l-1.29,0.77l4.12,1.03l1.03-4.12L14.01,4.6z M5.3,11.58l1.28,0.77L5.56,8.23 L1.44,9.26l1.29,0.77l-0.42,0.69c-0.26,0.44-0.28,0.98-0.06,1.44l1.22,2.44L5.3,11.58z"/></svg>
